X: 422
T: the Morning Star
N: Irish title: an maidineog
R: air, waltz
%S: s:4 b:16(4+4+4+4)
B: O'Neill's 1850 #422
O: Kerwin
Z: henrik.norbeck@mailbox.swipnet.se
Q: "Moderate"
M: 3/4
L: 1/8
K: G
(3GAB "^A"[| c2 Bc dB | AB GE (3DGB | (A3/B//A//) G2 G2 | "^fine"G4 |]
"^B"|: (3def | g2 gf ed | e2 G2 Bc | d2 dg [1 fe | {e}d4 :|[2 (3fed | g4 (3ed"^->A"c |]
